app/assets/images/heroicons/mini/document-currency-euro.svg

<svg width="20" height="20" viewBox="0 0 20 20" fill="none" xmlns="http://www.w3.org/2000/svg">
<path fill-rule="evenodd" clip-rule="evenodd" d="M4.5 2C3.67157 2 3 2.67157 3 3.5V16.5C3 17.3284 3.67157 18 4.5 18H15.5C16.3284 18 17 17.3284 17 16.5V7.62132C17 7.2235 16.842 6.84197 16.5607 6.56066L12.4393 2.43934C12.158 2.15804 11.7765 2 11.3787 2H4.5ZM8.79767 8.45038C9.31032 7.78 9.93284 7.5 10.5 7.5C11.0672 7.5 11.6897 7.78 12.2023 8.45038C12.4539 8.77942 12.9247 8.84218 13.2537 8.59056C13.5827 8.33895 13.6455 7.86824 13.3939 7.53921C12.6373 6.54986 11.5963 6 10.5 6C9.40366 6 8.36269 6.54986 7.60613 7.53921C7.27168 7.97657 7.01308 8.47233 6.83031 9H5.75C5.33579 9 5 9.33579 5 9.75C5 10.1642 5.33579 10.5 5.75 10.5H6.51977C6.49341 10.8324 6.49341 11.1676 6.51977 11.5H5.75C5.33579 11.5 5 11.8358 5 12.25C5 12.6642 5.33579 13 5.75 13H6.83031C7.01308 13.5277 7.27168 14.0234 7.60613 14.4608C8.36269 15.4501 9.40366 16 10.5 16C11.5963 16 12.6373 15.4501 13.3939 14.4608C13.6455 14.1318 13.5827 13.661 13.2537 13.4094C12.9247 13.1578 12.4539 13.2206 12.2023 13.5496C11.6897 14.22 11.0672 14.5 10.5 14.5C9.93284 14.5 9.31032 14.22 8.79767 13.5496C8.66735 13.3792 8.55299 13.1948 8.4546 13H10.25C10.6642 13 11 12.6642 11 12.25C11 11.8358 10.6642 11.5 10.25 11.5H8.02592C7.99136 11.1685 7.99136 10.8315 8.02592 10.5H10.25C10.6642 10.5 11 10.1642 11 9.75C11 9.33579 10.6642 9 10.25 9H8.4546C8.55299 8.80515 8.66735 8.62081 8.79767 8.45038Z" fill="black"/>
</svg>

<svg xmlns="http://www.w3.org/2000/svg" viewBox="0 0 20 20" fill="currentColor" aria-hidden="true" data-slot="icon">
  <path fill-rule="evenodd" d="M4.5 2A1.5 1.5 0 0 0 3 3.5v13A1.5 1.5 0 0 0 4.5 18h11a1.5 1.5 0 0 0 1.5-1.5V7.621a1.5 1.5 0 0 0-.44-1.06l-4.12-4.122A1.5 1.5 0 0 0 11.378 2H4.5Zm4.298 6.45c.512-.67 1.135-.95 1.702-.95s1.19.28 1.702.95a.75.75 0 0 0 1.192-.91C12.637 6.55 11.596 6 10.5 6s-2.137.55-2.894 1.54A5.205 5.205 0 0 0 6.83 9H5.75a.75.75 0 0 0 0 1.5h.77a6.333 6.333 0 0 0 0 1h-.77a.75.75 0 0 0 0 1.5h1.08c.183.528.442 1.023.776 1.46.757.99 1.798 1.54 2.894 1.54s2.137-.55 2.894-1.54a.75.75 0 0 0-1.192-.91c-.512.67-1.135.95-1.702.95s-1.19-.28-1.702-.95a3.505 3.505 0 0 1-.343-.55h1.795a.75.75 0 0 0 0-1.5H8.026a4.835 4.835 0 0 1 0-1h2.224a.75.75 0 0 0 0-1.5H8.455c.098-.195.212-.38.343-.55Z" clip-rule="evenodd"/>
</svg>
